icons/unpin.svg

<svg width="24" height="24" xmlns="http://www.w3.org/2000/svg" viewBox="0 0 24 24"><title>unpin</title><g stroke-width="1.5" fill="none" class="nc-icon-wrapper"><path d="M9.5 14.5L3 21" stroke="#ffffff" stroke-linecap="round" stroke-linejoin="round"></path><path d="M7.67602 7.8896L6.69713 7.78823L5.00007 9.48528L14.1925 18.6777L15.8895 16.9806L15.7879 16M11.4847 7L15.1568 2.67141L21.0065 8.5211L16.6991 12.175" stroke="#ffffff" stroke-linecap="round" stroke-linejoin="round"></path><path d="M3 3L21 21" stroke="#ffffff" stroke-linecap="round" stroke-linejoin="round"></path></g></svg>

<svg fill="none" stroke="currentColor" stroke-linecap="round" stroke-linejoin="round" stroke-width="1.5" viewBox="0 0 24 24"><path d="M9.5 14.5 3 21M7.676 7.89l-.979-.102L5 9.485l9.193 9.193 1.697-1.697-.102-.981m-4.303-9 3.672-4.329 5.85 5.85-4.308 3.654M3 3l18 18"/></svg>
